ix/diamonds_bulk.svg

<svg viewBox="0 0 24 24" fill="none" xmlns="http://www.w3.org/2000/svg" height="1em" width="1em">
  <path d="M21.2105 13.24L14.3604 20.78C13.0604 22.21 10.9404 22.21 9.64044 20.78L2.79044 13.24C2.02044 12.39 1.77044 10.85 2.23044 9.8L3.03044 8H20.9704L21.7705 9.8C22.2304 10.85 21.9805 12.39 21.2105 13.24Z" fill="#292D32"/>
  <path opacity="0.4" d="M20.9693 7.9999H3.0293L4.78929 4.0399C5.25929 2.9999 5.99929 2.1499 7.6993 2.1499H16.2993C17.9993 2.1499 18.7393 2.9999 19.2093 4.0399L20.9693 7.9999Z" fill="#292D32"/>
</svg>

<svg viewBox="0 0 24 24" fill="none" xmlns="http://www.w3.org/2000/svg" height="1em" width="1em">
  <path d="m21.21 13.24-6.85 7.54c-1.3 1.43-3.42 1.43-4.72 0l-6.85-7.54c-.77-.85-1.02-2.39-.56-3.44l.8-1.8h17.94l.8 1.8c.46 1.05.21 2.59-.56 3.44Z" fill="#292D32"/>
  <path opacity=".4" d="M20.97 8H3.03l1.76-3.96C5.26 3 6 2.15 7.7 2.15h8.6c1.7 0 2.44.85 2.91 1.89L20.97 8Z" fill="#292D32"/>
</svg>
